app/assets/images/heroicon/mini/hand-thumb-up.svg

<svg width="20" height="20" viewBox="0 0 20 20" fill="none" xmlns="http://www.w3.org/2000/svg">
<path d="M1 9.25C1 8.55964 1.55964 8 2.25 8C2.94036 8 3.5 8.55964 3.5 9.25V16.75C3.5 17.4404 2.94036 18 2.25 18C1.55964 18 1 17.4404 1 16.75V9.25Z" fill="#0F172A"/>
<path d="M11 4V2.70016C11 2.43243 11.1397 2.17406 11.3949 2.09316C11.5858 2.03264 11.7891 2 12 2C13.1046 2 14 2.89543 14 4C14 4.99504 13.8183 5.94764 13.4864 6.82646C13.2823 7.36683 13.6524 8 14.23 8H16.75C17.9926 8 19.0111 9.00957 18.8962 10.2469C18.7031 12.3266 18.2447 14.3294 17.555 16.2209C17.1534 17.3225 16.0723 18 14.8998 18H11.7082C11.2425 18 10.7831 17.8916 10.3666 17.6833L7.63344 16.3167C7.21687 16.1084 6.75753 16 6.2918 16H5V9H5.9632C6.64763 9 7.22105 8.51748 7.57541 7.93193C8.06387 7.1248 8.82962 6.50423 9.74061 6.20229C10.1734 6.05884 10.5942 5.81595 10.7525 5.38836C10.9126 4.95587 11 4.48815 11 4Z" fill="#0F172A"/>
</svg>

<svg xmlns="http://www.w3.org/2000/svg" viewBox="0 0 20 20" fill="currentColor" aria-hidden="true">
  <path d="M1 9.25a1.25 1.25 0 112.5 0v7.5a1.25 1.25 0 11-2.5 0v-7.5zM11 4V2.7c0-.268.14-.526.395-.607A2 2 0 0114 4c0 .995-.182 1.948-.514 2.826-.204.54.166 1.174.744 1.174h2.52c1.243 0 2.261 1.01 2.146 2.247a23.864 23.864 0 01-1.341 5.974C17.153 17.323 16.072 18 14.9 18h-3.192a3 3 0 01-1.341-.317l-2.734-1.366A3 3 0 006.292 16H5V9h.963c.685 0 1.258-.483 1.612-1.068a4.011 4.011 0 012.166-1.73c.432-.143.853-.386 1.011-.814.16-.432.248-.9.248-1.388z"/>
</svg>
